X: 061
T: Mrs Duncan's Reel
R: reel
M: C|
L: 1/8
Z: 2012 John Chambers <jc:trillian.mit.edu>
B: J. Anderson "Budget of Strathspeys, Reels and Country Dances" (Early 1800s) p.6 #1
F: http://imslp.org/wiki/Anderson%27s_Budget_of_Strathspeys,_Reels_and_Country_Dances_(Various)
K: D
a |\
ddad fdad | fdad e=cce | ddad fdad | e=cga fdd :|
A |\
(def).d AdFd | EcGc EccA | (def).d AdFd | EFGE FDDA |
(def).d AdFd | E=cGc EccE | Ddfd cegb | agfe fdd |]

%%sep 2 1 500
%%sep 1 1 500

